X:1
T:Title
%%score { 1 | 2 }
L:1/8
M:4/4
K:Bb
V:1 treble nm="Grand Piano"
V:2 bass 
V:1
 z4 z2[Q:1/4=108] [B,D]>[CE] | [DF]2 [FB]>c d3 [DF] | G2 B2 B3 G | [DF]2 [FB]>c d2 [=Ed]2 | %4
[M:3/4] [Fc]6 |[M:1/4] [B,D][CE] |[M:4/4] [DF]2 [DB]2 [Fd]2 [DB]>[DF] | [F_A]2 [FA]2 G3 G | %8
 F2 d>d d2 c2 |[M:3/4] [DB]6 |[M:1/4] [B,D][CE] |[M:4/4] [DF]2 [DB]>[DB] [DB]3 c | %12
 d>c [FB]>G F2 d2 | f2 d>c B2 [=Ed]2 |[M:3/4] c6 |[M:1/4] dc |[M:4/4] [DB]2 [DB]>[Ec] [Fd]3 [Fc] | %17
 [GB]2 G2 F2 [Ge]2 | d2 d>B d2 c2 |[M:3/4] [DB]6 |] %20
V:2
 z4 z2 [B,,F,]>[B,,F,] | [B,,B,]2 [D,B,]>[F,A,F] [B,F]3 [B,,B,] | %2
 [E,B,E]2 [E,G,E]2 [E,G,E]3 [E,B,E] | [B,,B,]2 [D,B,]>[K:treble][F,A,F] [B,F]2[K:bass] [C,B,]2 | %4
[M:3/4] [F,A,]6 |[M:1/4] [B,,F,]2 |[M:4/4] [B,,B,]2 [B,,F,]2 [B,,B,]2 [B,,B,]>[B,,B,] | %7
 [D,B,]2 [D,B,]2 [E,B,E]3 [E,B,E] | [F,B,D]2 [F,B,F]>[F,B,F] [F,B,F]2 [F,A,E]2 |[M:3/4] [B,,B,]6 | %10
[M:1/4] [B,,F,]2 |[M:4/4] [B,,B,]2 [B,,B,]>[B,,B,] [B,,B,]3[K:treble] [F,A,F] | %12
 [B,F]>[K:bass][F,A,F] [D,B,]>[E,B,E][K:treble] [B,D]2 [B,F]2 | %13
 [B,DF]2 [B,F]>[K:bass][^F,A,E] [G,B,D]2 [C,B,]2 |[M:3/4] [F,A,F]6 |[M:1/4] [F,A,F][F,A,E] | %16
[M:4/4] [B,,B,]2 [B,,B,]>[B,,B,] [B,,B,]3 [D,B,] | [E,B,]2 [G,B,E]2 [B,D]2 [E,B,]2 | %18
 [F,B,F]2 [F,B,F]>[F,DF] [F,B,F]2 [F,A,E]2 |[M:3/4] [B,,B,]6 |] %20

